src/pictures/icon-fb.svg

<svg xmlns="http://www.w3.org/2000/svg" viewBox="0 0 79.8 149" enable-background="new 0 0 79.8 149"><style type="text/css">.st0{fill:#657EE4;}</style><path id="Icon_awesome-facebook-f" class="st0" d="M74.6 83.8l4.1-27h-25.9v-17.5c-.7-7.4 4.8-14 12.2-14.6 1-.1 2-.1 3 .1h11.8v-23c-6.9-1.1-13.9-1.7-20.9-1.8-21.3 0-35.2 12.9-35.2 36.3v20.5h-23.7v27h23.7v65.2h29.1v-65.2h21.8z"/></svg>

<?xml version="1.0" encoding="utf-8"?>
<!-- Generator: Adobe Illustrator 24.2.3, SVG Export Plug-In . SVG Version: 6.00 Build 0)  -->
<svg version="1.1" id="Layer_1" xmlns="http://www.w3.org/2000/svg" xmlns:xlink="http://www.w3.org/1999/xlink" x="0px" y="0px"
	 viewBox="0 0 79.8 149" style="enable-background:new 0 0 79.8 149;" xml:space="preserve">
<style type="text/css">
	.st0{fill:#657EE4;}
</style>
<path id="Icon_awesome-facebook-f" class="st0" d="M74.6,83.8l4.1-27H52.8V39.3c-0.7-7.4,4.8-14,12.2-14.6c1-0.1,2-0.1,3,0.1h11.8
	v-23C72.9,0.7,65.9,0.1,58.9,0C37.6,0,23.7,12.9,23.7,36.3v20.5H0v27h23.7V149h29.1V83.8H74.6z"/>
</svg>
